!!!id: EG019c
!!!page: 10
!!!COM: Anonymous
!!!LYR: Anonymous
!!!PTL@@FR: Chansons Populaires du Canada
!!!OTL@@FR: C'est la belle Françoise (autre air)
!!!PUB: G. E. Desbarats
!!!YEM:
!!!PDT: 1865
!!!SMA:
!!!OMD:
!!!AGN-Laforte:
!!!AGN-type:
!!!AGN-rime:
**kern
*clefG2
*k[f#,c#,g#]
*A:
*M3/8
*
*
8e
=1
4a
8b
=2
4cc#
8dd
=3
4ee
8cc#
=4
4.ee
!!LO:PB:g=original
=5
8ee
8dd
8cc#
=6
4b
8cc#
=7
4a
8b
=8
4cc#
8dd
=9
4ee
8ddq
8cc#
!!LO:PB:g=original
=10
4.ee
=11
8ee
8dd
8cc#
=12
4b
8ee
=13
4ee
8cc#
=14
4a
8b
=15
4.a
!!LO:PB:g=original
=16
8f#
8g#
8a
=17
8b/
8a
8b/
=18
4b/
8ee
=19
4ee
8cc#
!!LO:PB:g=original
=20
4a
8b/
=21
4.a
=22
8f#
8g#
8a
=23
4b
!LO:TX:a:B:t=2
.
4cc#
!!LO:PB:g=original
=24
4a
==||
8r
==||
*
*
==|
!!!RWG: Tuplet in m.23 matches score but might not be encoded quite the right way
*-
